icons/delphi.svg

<!--
  - The MIT License (MIT)
  -
  - Copyright (c) 2015-2024 Elior "Mallowigi" Boukhobza
  -
  - Permission is hereby granted, free of charge, to any person obtaining a copy
  - of this software and associated documentation files (the "Software"), to deal
  - in the Software without restriction, including without limitation the rights
  - to use, copy, modify, merge, publish, distribute, sublicense, and/or sell
  - copies of the Software, and to permit persons to whom the Software is
  - furnished to do so, subject to the following conditions:
  -
  - The above copyright notice and this permission notice shall be included in all
  - copies or substantial portions of the Software.
  -
  - THE SOFTWARE IS PROVIDED "AS IS", WITHOUT WARRANTY OF ANY KIND, EXPRESS OR
  - IMPLIED, INCLUDING BUT NOT LIMITED TO THE WARRANTIES OF MERCHANTABILITY,
  - FITNESS FOR A PARTICULAR PURPOSE AND NONINFRINGEMENT. IN NO EVENT SHALL THE
  - AUTHORS OR COPYRIGHT HOLDERS BE LIABLE FOR ANY CLAIM, DAMAGES OR OTHER
  - LIABILITY, WHETHER IN AN ACTION OF CONTRACT, TORT OR OTHERWISE, ARISING FROM,
  - OUT OF OR IN CONNECTION WITH THE SOFTWARE OR THE USE OR OTHER DEALINGS IN THE
  - SOFTWARE.
  -
  -->

<svg version="1.1" xmlns="http://www.w3.org/2000/svg" viewBox="0 0 440 512" width="16px" height="16px">
  <path fill="#eb2734" data-iconColor="Delphi"
        d="M188.1004791,318.8625488l-4.0398407-19.0517883l176.0726929-121.4681244l17.3147583,102.6493988L188.1004791,318.8625488z M339.2928162,467.1235046C336.5715942,494.3225708,288.9780884,512,288.9780884,512l-84.314743-183.4303894l25.8386536-4.0796814C271.3333435,374.3333435,315.6666565,375,339.2928162,467.1235046z M234.4889221,468.641449c-35.8336639-7.26297-63.1075745-9.7310791-83.6493988-9.7310791c-23.0547867,0-37.6205215,3.1135254-46.2320786,6.0557556l25.6025925-58.7689209l0.0926208-0.2350464c0.0973663-0.2375488,10.4832001-22.7426758,96.5505524-9.5808105l21.53685,46.8543396L234.4889221,468.641449z M80.648407,223.8579407l-49.3716393-97.3878174l53.0358543-53.0358582l24.4780884,108.111557C98.2358398,192.7902527,88.9040375,207.0135651,80.648407,223.8579407z M305.9759827,146.8685303L439.2449036,35.356575L339.2926941,0l-94.769165,129.4729767C264.7970886,131.6237946,287.6186218,139.7413483,305.9759827,146.8685303z M235.9621582,128.8286896L310.0556641,0h-96.5516815l-39.4383698,138.0278931C193.4523315,131.2307587,214.1116943,128.2458191,235.9621582,128.8286896z M167.2668152,140.0677338l14.2788696-118.9900436l-76.8346558,31.958168l10.8396454,121.9294128C128.9520569,162.2933502,145.4363861,150.4564819,167.2668152,140.0677338z M69.5775681,330.4672546L4.0796814,310.0557861l14.9580421,44.8764954h58.2959404C74.1226349,347.0056152,71.5263977,338.8266907,69.5775681,330.4672546z M80.6887436,362.6426697l-49.4119759,7.2477722l23.458168,34.6772766l39.5992241-18.0282593C89.1150436,378.956665,84.5606308,370.9569092,80.6887436,362.6426697z M65.2749023,277.3406372L4.0796814,237.9800873L0,293.7370605l66.9849319,22.9837952C65.3240433,304.0552979,64.7944183,290.9114685,65.2749023,277.3406372z M74.1134186,233.9004059l-48.2747726-68.2510071L4.0796814,218.9422302l61.1952209,52.2789001L74.1134186,233.9004059z M121.4516907,405.8724976c8.0367737-25.6908264,61.7771606-23.8327942,101.3284454-18.3523254l-28.3192291-61.6096802l-12.6692047,2.5337219l-6.8406372-32.2629395L338.7863464,183.158371C234.3333282,93,146.2482452,154.4185638,115,187.666687C73.3333359,232,42.3333321,325.6666565,121.4516907,405.8724976z"/>
</svg>

<svg xmlns="http://www.w3.org/2000/svg" viewBox="0 0 440 512"><path fill="#eb2734" d="m188.1 318.863-4.04-19.052 176.073-121.468 17.315 102.649zm151.193 148.26c-2.721 27.2-50.315 44.877-50.315 44.877l-84.315-183.43 25.839-4.08c40.831 49.843 85.165 50.51 108.79 142.634m-104.804 1.518c-35.834-7.263-63.108-9.73-83.65-9.73-23.054 0-37.62 3.113-46.232 6.055l25.603-58.769.093-.235c.097-.237 10.483-22.743 96.55-9.58l21.537 46.854zM80.649 223.858 31.276 126.47l53.036-53.036 24.478 108.112c-10.555 11.244-19.887 25.468-28.143 42.312m225.327-76.99 133.271-111.51L339.293 0l-94.77 129.473c20.274 2.15 43.096 10.268 61.453 17.396m-70.014-18.04L310.056 0h-96.552l-39.438 138.028c19.386-6.797 40.046-9.782 61.896-9.2m-68.695 11.24 14.279-118.99-76.835 31.958 10.84 121.93c13.401-12.673 29.885-24.51 51.716-34.898m-97.69 190.4L4.08 310.055l14.958 44.876h58.296a165 165 0 0 1-7.756-24.465m11.112 32.175-49.412 7.247 23.458 34.678 39.6-18.029a165 165 0 0 1-13.646-23.896M65.275 277.34 4.08 237.98 0 293.736l66.985 22.984c-1.661-12.666-2.19-25.81-1.71-39.38m8.838-43.44L25.84 165.648 4.08 218.941l61.196 52.28zm47.339 171.971c8.036-25.69 61.777-23.832 101.328-18.352l-28.32-61.61-12.668 2.534-6.84-32.263 163.834-113.023C234.333 93 146.248 154.418 115 187.667c-41.667 44.333-72.667 138 6.452 218.205" data-iconColor="Delphi"/></svg>
